X: 48
T: DA FASHION O' DA DELTING LASSES
S: Margaret Robertson, Mid Yell J.H.
R: reel
B: Haand me doon da fiddle, 1979
Z: 2012 John Chambers <jc:trillian.mit.edu>
M: C
L: 1/8
K: D
|:\
(uDF)AF dFAF | G","y/BAF GEkE2 | (uDF)AF dFAF | G","y/BAG FDkD2 :|
ud2","y/ef gef(ud | fg)af gfec | vd2","y/(ef) gef(d | AB)AG FDD2 |
ud2","y/ef gef(ud | fg)af gfec | vd2(ef) kaef(d | AB)AG FDD2 |]
%%begintext align
Some folk say it did een is taen fae a Scottish t\"un caaed da "Duke
o' Perth".  What wye he cam ta Shetland we niver ken bit da fiddlers
fan oot it he could be turned in til a Shetland Reel an so dye \"osed
him fir dat.

Dey said at da Delting lasses wir awful fine dancers an it becam da
fashion ta dance laek dem.  Idder eens said dey wir awful fashie
so maybe dere's a bit o' afftak  ida name o' him.  Sometimes whin
I play him hit minds me o' what da auld folk telt me aboot da Bad
Day in 1900 whin sae mony Delting men were lost at da fishing, an
hoo da lasses st\"od ida doors o' da hooses aye lippinin to see da
boats comin sailin in trow da voe.  Efter dat naebody in dat district
hed da hert to dance an onewye maist a what wis left moved awa an noo
da hooses aa stand empty.
%%endtext

%%sep 2 1 500
%%sep 1 1 500

